src/assets/icons/connections.svg

<svg width="32" height="32" viewBox="0 0 32 32" fill="none" xmlns="http://www.w3.org/2000/svg">
<rect width="32" height="32" rx="10" fill="white"/>
<path d="M22.6496 19.2635H25.9124C26.513 19.2635 27 19.7628 27 20.3784V23.723C27 24.3386 26.513 24.8379 25.9124 24.8379H22.6496C22.049 24.8379 21.562 24.3386 21.562 23.723V20.3784C21.562 19.7628 22.049 19.2635 22.6496 19.2635ZM23.4653 16.4764H16.9397V18.1487H15.3083V16.4764H8.78264V18.1487H7.15124V16.1423C7.15124 15.4047 7.73685 14.8041 8.4567 14.8041H15.3083V12.5743H13.9488C13.3482 12.5743 12.8612 12.0751 12.8612 11.4595V8.11487C12.8612 7.49925 13.3482 7 13.9488 7H18.2992C18.8997 7 19.3868 7.49925 19.3868 8.11487V11.4595C19.3868 12.0751 18.8997 12.5743 18.2992 12.5743H16.9397V14.8041H23.7912C24.5111 14.8041 25.0967 15.4044 25.0967 16.1423V18.1487H23.4653V16.4764ZM14.4926 19.2635H17.7554C18.3559 19.2635 18.843 19.7628 18.843 20.3784V23.723C18.843 24.3386 18.3559 24.8379 17.7554 24.8379H14.4926C13.892 24.8379 13.405 24.3386 13.405 23.723V20.3784C13.405 19.7628 13.892 19.2635 14.4926 19.2635ZM6.33554 19.2635H9.59835C10.1989 19.2635 10.6859 19.7628 10.6859 20.3784V23.723C10.6859 24.3386 10.1989 24.8379 9.59835 24.8379H6.33554C5.73498 24.8379 5.24793 24.3386 5.24793 23.723V20.3784C5.24793 19.7628 5.73498 19.2635 6.33554 19.2635Z" fill="#4FA1C1"/>
</svg>

<svg xmlns="http://www.w3.org/2000/svg" width="32" height="32" fill="none"><rect width="32" height="32" fill="#fff" rx="10"/><path fill="#4FA1C1" d="M22.65 19.264h3.262c.601 0 1.088.499 1.088 1.114v3.345c0 .616-.487 1.115-1.088 1.115H22.65c-.601 0-1.088-.5-1.088-1.115v-3.345c0-.615.487-1.114 1.088-1.114Zm.815-2.788H16.94v1.673h-1.632v-1.673H8.783v1.673H7.15v-2.007c0-.737.586-1.338 1.306-1.338h6.851v-2.23h-1.36c-.6 0-1.087-.499-1.087-1.114V8.114c0-.616.487-1.115 1.088-1.115h4.35c.6 0 1.088.5 1.088 1.115v3.345c0 .615-.487 1.114-1.088 1.114h-1.36v2.23h6.852c.72 0 1.306.6 1.306 1.338v2.007h-1.632v-1.673Zm-8.972 2.788h3.262c.6 0 1.088.499 1.088 1.114v3.345c0 .616-.487 1.115-1.088 1.115h-3.262c-.601 0-1.088-.5-1.088-1.115v-3.345c0-.615.487-1.114 1.088-1.114Zm-8.157 0h3.262c.6 0 1.088.499 1.088 1.114v3.345c0 .616-.487 1.115-1.088 1.115H6.336c-.601 0-1.088-.5-1.088-1.115v-3.345c0-.615.487-1.114 1.088-1.114Z"/></svg>
